X:5
T:Piano Postulate no. 5: ∀A(0 ∈ A ∧ ∀a(a ∈ A ⇒ S(a) ∈ A) ⇒ A ⊇ ℕ)
C:David Mandelberg
M:2/4
L:1/8
Q:"Andante"
V:T1 clef=treble
V:B1 clef=bass
V:T2 clef=treble
V:B2 clef=bass
V:T3 clef=treble
V:B3 clef=bass
%%score [{T1 B1} {T2 B2} {T3 B3}]
K:C
[V:T1] !mp! g^g ga | G^G GA | z2    EF |\
[V:B1] !mp! Z      | Z      | ^C,D, z2 |\
[V:T2] !mp! Z      | Z      | Z        |\
[V:B2] !mp! Z      | Z      | Z        |\
[V:T3] !mp! Z      | Z      | Z        |\
[V:B3] !mp! Z      | Z      | Z        |\
[V:T1] Z |\
[V:B1] Z |\
[V:T2] Z |\
[V:B2] Z |\
[V:T3] Z |\
[V:B3] Z |\
[V:T1] !ff! [CEGBdfa] z3 & [DFAcegb] z3 |]
[V:B1] !ff! [C,,E,,G,,B,,D,F,A,] z3 & [D,,F,,A,,C,E,G,B,] z3 |]
[V:T2] !ff! [^C^G^d^f^a] z3 |]
[V:B2] !ff! [^C,,^G,,^D,^F,^A,] z3 |]
[V:T3] !ff! [^D^F^A^c^g] z3 |]
[V:B3] !ff! [^D,,^F,,^A,,^C,^G,] z3 |]
